material/.icons/material/content-save-settings.svg

<svg xmlns="http://www.w3.org/2000/svg" viewBox="0 0 24 24"><path d="M15 8V4H5v4h10m-3 10a3 3 0 003-3 3 3 0 00-3-3 3 3 0 00-3 3 3 3 0 003 3m5-16l4 4v12a2 2 0 01-2 2H5a2 2 0 01-2-2V4a2 2 0 012-2h12m-6 20h2v2h-2v-2m-4 0h2v2H7v-2m8 0h2v2h-2v-2z"/></svg>

<?xml version="1.0" encoding="UTF-8"?><!DOCTYPE svg PUBLIC "-//W3C//DTD SVG 1.1//EN" "http://www.w3.org/Graphics/SVG/1.1/DTD/svg11.dtd"><svg xmlns="http://www.w3.org/2000/svg" xmlns:xlink="http://www.w3.org/1999/xlink" version="1.1" id="mdi-content-save-settings" width="24" height="24" viewBox="0 0 24 24"><path d="M15,8V4H5V8H15M12,18A3,3 0 0,0 15,15A3,3 0 0,0 12,12A3,3 0 0,0 9,15A3,3 0 0,0 12,18M17,2L21,6V18A2,2 0 0,1 19,20H5C3.89,20 3,19.1 3,18V4A2,2 0 0,1 5,2H17M11,22H13V24H11V22M7,22H9V24H7V22M15,22H17V24H15V22Z" /></svg>
